X: 1
T: A Kerry
M: 4/4
L: 1/8
R: reel
K: Emin
A|:Beed B^cdB|~B2AG E^FGA|Beed B^cdB|~B2A^F D2^FA:|
|Bee^c d2^fd|edB^c dBA2|Bee^c d2^fd|edB^c ~d3A|
Bee^c d2^fd|edB^c dBA2|eg{a}ge ~^f3e|dBAB e3A|
